src/svg/white/dcn.svg

<svg height="32" viewBox="0 0 32 32" width="32" xmlns="http://www.w3.org/2000/svg"><path d="m4.77362519 27.4003773c-2.94670998-2.9020132-4.77362519-6.9378458-4.77362519-11.4003773 0-8.836556 7.163444-16 16-16s16 7.163444 16 16c0 4.60932-1.9490793 8.7634081-5.0680181 11.6830443-.8095692-1.2903843-1.3828169-2.2111325-1.719743-2.7622443-2.8880657-4.7236923-5.0678356-9.763956-6.6172493-15.07692308-.8505863-2.91674725-1.6438356-5.85037362-2.4638247-8.77608791-.0419068-.14918681-.0924054-.296-.2297863-.45441758-.1283507.40325275-.2669589.80360439-.3835616 1.2101978-1.3070028 4.56043956-2.6775671 9.10197807-4.390926 13.52764837-1.58421264 4.0919147-4.00773066 8.327838-6.35326581 12.0491597zm16.37340851 4.5996227h-7.6297913l-3.1460876-.8115997c2.4038117-6.7756163 4.1937577-11.8166699 5.3698381-15.1231607l.1537753.0026373c1.1153534 3.351033 2.8661086 8.6617407 5.2522655 15.9321231z" fill="#fff" fill-rule="evenodd"/></svg>

<svg xmlns="http://www.w3.org/2000/svg" width="32" height="32" viewBox="0 0 32 32">
  <path fill="#FFF" fill-rule="evenodd" d="M4.77362519,27.4003773 C1.82691521,24.4983641 0,20.4625315 0,16 C0,7.163444 7.163444,0 16,0 C24.836556,0 32,7.163444 32,16 C32,20.60932 30.0509207,24.7634081 26.9319819,27.6830443 C26.1224127,26.39266 25.549165,25.4719118 25.2122389,24.9208 C22.3241732,20.1971077 20.1444033,15.156844 18.5949896,9.84387692 C17.7444033,6.92712967 16.951154,3.9935033 16.1311649,1.06778901 C16.0892581,0.918602198 16.0387595,0.771789011 15.9013786,0.613371429 C15.7730279,1.01662418 15.6344197,1.41697582 15.517817,1.82356923 C14.2108142,6.38400879 12.8402499,10.9255473 11.126891,15.3512176 C9.54267836,19.4431323 7.11916034,23.6790556 4.77362519,27.4003773 Z M21.1470337,32 L13.5172424,32 L10.3711548,31.1884003 C12.7749665,24.412784 14.5649125,19.3717304 15.7409929,16.0652396 L15.8947682,16.0678769 C17.0101216,19.4189099 18.7608768,24.7296176 21.1470337,32 Z"/>
</svg>
